X: 20831
M: C
L: 1/16
K: C
d2 |\
g3ceg3 f3_Bdf3 | gc3e3c Tg3fec3 |
faf2 ege2 f3_Bd^f3 | ge3=f3d c4 c2ef |\
g3ceg3 f3_Bdf3 | gc'g2 ege2 gc'g2 ege2 |\
faf2 ege2 e_bd2 Bdf2 | geg2 f3d c4 Tc2 |]


